docs/.gitbook/assets/icon-raycast-logo-neg-16@dark.svg

<svg width="32" height="32" viewBox="0 0 16 16" fill="none" xmlns="http://www.w3.org/2000/svg">
<rect x="0" y="0" width="16" height="16" fill="#181c1f"/>
<path fill-rule="evenodd" clip-rule="evenodd" d="M4.50239 10.037V11.4976L1 7.99522L1.73391 7.26689L4.50239 10.037ZM5.96304 11.4976H4.50239L8.00478 15L8.7355 14.2701L5.96304 11.4976ZM14.2701 8.72913L15 7.99841L8.00159 1L7.27166 1.73073L10.037 4.4992H8.36536L6.43507 2.5705L5.70434 3.30043L6.9063 4.50239H6.06971V9.93348H11.5008V9.0937L12.7028 10.2957L13.4335 9.56573L11.5008 7.63305V5.96145L14.2701 8.72913ZM4.86775 4.13384L4.13782 4.86457L4.92108 5.64783L5.65101 4.9171L4.86775 4.13384ZM11.0829 10.349L10.3554 11.0789L11.1386 11.8622L11.8685 11.1315L11.0829 10.349ZM3.30123 5.70116L2.5705 6.43188L4.50239 8.36377V6.90232L3.30123 5.70116ZM9.09768 11.4976H7.63623L9.56811 13.4295L10.2988 12.6988L9.09768 11.4976Z" fill="#fff"/>
</svg>

<svg xmlns="http://www.w3.org/2000/svg" width="32" height="32" fill="none" viewBox="0 0 16 16"><path fill="#181c1f" d="M0 0h16v16H0z"/><path fill="#fff" fill-rule="evenodd" d="M4.502 10.037v1.46L1 7.996l.734-.728zm1.461 1.46h-1.46L8.004 15l.73-.73zM14.27 8.73 15 8 8.002 1l-.73.73 2.765 2.77H8.365l-1.93-1.93-.73.73 1.201 1.202H6.07v5.431h5.43v-.84l1.203 1.203.73-.73-1.932-1.933V5.961zM4.868 4.134l-.73.73.783.784.73-.73zm6.215 6.215-.728.73.784.783.73-.73zM3.3 5.701l-.73.73 1.931 1.933V6.902zm5.797 5.797H7.636l1.932 1.932.73-.731z" clip-rule="evenodd"/></svg>
